X: 21411
M: 6/8
L: 1/8
K: D
V: 1 name="4"
faf dfd | ecA A2A | f>ga a>gf | e2c A2a/g/ |\
faf dfd | cde A2c | d>cd f2e | d3- d2 H|]
e |\
ecB A>GE | D2f fga | d2f fga | efe d2e |\
ecB A>GE | D2f fga | b3 cfe | d3- "^D.C."d2 |][K:=c]
K:G


